X:174
T: Miller's Jig
M: 6/8
L: 1/8
Q:1/4=200
K:Em % 1 sharps
% Bees of Maggie...
% \0xa9 SSF February 2007
"Em"G2A B2A|"Em"B2A BGE|"Em"G2A B2A|"Bm"B2e edB|\
"Em"G2A B2A|"Em"B2A Bde|"C"gfe "G"dBA|"Em"Bee edB:||\
"C"e2f gfe|"G"d2B BAG|"C"e2f gfg|"D"aga "Em"b2g|\
"C"e2f gfe|"G"d2B BAG|"D"A2B cBA|1:"Em"B2e e3:||2:"Em"BEE E2||

% <A name="D1X175"></A>
